X: 127
T: My Boat
C: words: M. B.
C: music: German Folksong.
N: Copyright, 1916, by the Cable Company.
%R: air, march
B: "The Everyday Song Book", 1927
F: http://www.library.pitt.edu/happybirthday/pdf/The_Everyday_Song_Book.pdf
Z: 2017 John Chambers <jc:trillian.mit.edu>
M: 4/8
L: 1/8
K: F
% - - - - - - - - - - - - - - - - - - - - - - - - - - - - -
c | c A B G | F G A B | c2 d B | c2 z c | c A
w: 1.~My broth-er made a lit-tle boat and gave her to me. Her mast was
w: 2.~But lack-a-day! a-lack-a-day! for boat-ie and me!   A bit-ter,
%
B G | F G A F | G2 F E | F2 z c | d2 d B | c2 c A |
w: straight, her hull was trim, She sailed bon-ni-ly;  She sailed on the riv-er, she
w: storm-y wind sprang up       That blew might-i-ly.  Far out in the big lake it
%
B2 B G | A2 z c | c A B G | F G A F | G2 F E | F2 z |]
w: sailed on the lake, And ma-ny were the voy-a-ges my boat-ie did make.
w: bore her a-way,     And nev-er did I see her more on riv-er or bay.
% - - - - - - - - - - - - - - - - - - - - - - - - - - - - -

%%sep 1 1 500
%%sep 1 1 500

